!!!!SEGMENT: pl-wnifc--6022-n--001_merlini--polonez.krn
!!!cenid: 18xx:3918
!!!COM: Merlini
!!!COM-rismID: pe50044976
!!!CDT:
!!!CNT:
!!!OTL: Polonez
!!!PDT:
!!!AGN:
!!!SMS-siglum: PL-Wnifc
!!!SMS-shelfmark: 6022/n
!!!SMS-shelfwork: 001 W
!!!SMS-variant:
!!!SMS-altvar:
!!!NIFC-rismSourceID: 1001134343
!!!NIFC-rismChildID: 1001134344
!!!NIFC-islandoraID: nifc:212599
!!!URL-pdf-islandora: https://repozytorium.nifc.pl/islandora/object/nifc%3A212599/datastream/PDF/view
!!!URL-scan: https://polish.musicsources.pl/pl/lokalizacje/galeria/druki-muzyczne/16849 @EN{Scan on Polish Music Sources Website} @PL{Skany w portalu Dziedzictwo Muzyki Polskiej w otwartym dostępie}
!!!ONB-nifc: UWAGA: s. 4-5
!!!AIN: 1 piano
!!!key: f
**kern	**dynam	**kern	**dynam
*part1	*part1	*part1	*part1
*staff2	*	*staff1	*
*I"[Piano]	*	*I"[Piano]	*
*I'pf	*	*I'pf	*
*ICklav	*	*ICklav	*
*Ipiano	*	*Ipiano	*
*clefF4	*	*clefG2	*
*k[b-e-a-d-]	*	*k[b-e-a-d-]	*
*f:	*	*f:	*
*M3/4	*	*M3/4	*
=1	=1	=1	=1
(8F\L 8A-	.	(<16f/LL	p
.	.	16a-/JJ	.
8c\	.	4cc\)	.
8F\ 8A-	.	.	.
8c\)	.	8cc\	.
8F\ 8A-	.	8.aa-\L	.
8c\J	.	.	.
.	.	16gg\Jk	.
=2	=2	=2	=2
*2\right	*	*2\right	*
.	.	8qqgg/	.
*tremolo	*	*	*
(8G\L 8B-	.	8ff\L	.
8c\	.	8een\J	.
8G\ 8B-	.	4.een\	.
8c\	.	.	.
8G\ 8B-	.	.	.
8c\J)	.	8ff\	.
=3	=3	=3	=3
(8En\L 8G	.	8gg\	.
8c\	.	4gg\	.
8E\ 8G	.	.	.
8c\	.	8gg\L	.
8E\ 8G	.	8ccc\	.
8c\J)	.	8bb-\J	.
=4	=4	=4	=4
.	.	8qqccc/	.
(8F\L 8A-	.	(8bb-\L	.
8c\	.	8aa-\J	.
8F\ 8A-	.	4aa-\)	.
8c\	.	.	.
8F\ 8A-	.	16r	.
.	.	16cc\LL	.
8c\J)	.	16ddn\	.
.	.	16een\JJ	.
=5	=5	=5	=5
16F\LL	.	8.ff\L	f
16c\	.	.	.
16A-\	.	.	.
16c\JJ	.	16a-\Jk 16cc 16ff	.
16F\LL	.	4a-\ 4cc 4ff	.
16c\	.	.	.
16C\	.	.	.
16c\JJ	.	.	.
16F\LL	.	4r	.
16c\	.	.	.
16A-\	.	.	.
16c\JJ	.	.	.
!!LO:LB:g=original	!	!
=6	=6	=6	=6
16En\LL	.	8.g\L 8.cc 8.gg	f
16c\	.	.	.
16G\	.	.	.
16c\JJ	.	16g\Jk 16cc 16gg	.
16E\LL	.	4g\ 4cc 4gg	.
16c\	.	.	.
16C\	.	.	.
16c\JJ	.	.	.
16E\LL	.	4r	.
16c\	.	.	.
16G\	.	.	.
16c\JJ	.	.	.
=7	=7	=7	=7
(8F\L 8A-	.	4.ccc\	p
8c\	.	.	.
8F\ 8A-	.	.	.
8c\	.	(16ddd-\LL	.
.	.	16ccc\JJ	.
8En\ 8G	.	16bb-\LL	.
.	.	16gg\)	.
8c\J)	.	16ccc\	.
.	.	16bb-\JJ	.
=8	=8	=8	=8
8F\L 8A-	.	(16aa-\LL	.
.	.	16ff\	.
8c\J	.	16bb-\	.
.	.	16aa-\JJ	.
8C\L 8G	.	16gg\LL	.
.	.	16een\	.
8c\J	.	16ccc\)	.
.	.	16ee\JJ	.
8F\ 8A-	.	8ff\L	.
8r	.	8cc\J	.
=9	=9	=9	=9
8r	.	(16dd-\LL	.
.	.	16cc\	.
8G\L 8B- 8d-	.	16dd-\	.
.	.	16cc\JJ	.
8G\ 8B- 8d-	.	16dd-\LL	.
.	.	16cc\	.
8G\ 8B- 8d-	.	16een\)	.
.	.	16gg\JJ	.
8A-\ 8c	.	8.ff\L	.
8A-\J 8c	.	.	.
.	.	16cc\Jk	.
=10	=10	=10	=10
8r	.	(16dd-\LL	.
.	.	16cc\	.
8G\L 8B- 8d-	.	16dd-\	.
.	.	16cc\JJ	.
8G\ 8B- 8d-	.	16dd-\LL	.
.	.	16cc\	.
8G\ 8B- 8d-	.	16een\	.
.	.	16gg\JJ)	.
8A-\ 8c	.	8.ff\L	.
8A-\J 8c	.	.	.
.	.	16cc\Jk	.
!!LO:LB:g=original	!	!
=11	=11	=11	=11
8r	.	8dd-\	rf
8EE-\L 8En	.	4dd-\	.
8GG\ 8G	.	.	.
*	*	*Xtuplet	*
!	!	!LO:TUP:a:problem:klamra łukowa	!
8BB-\J 8B-	.	24cc\LL	.
.	.	24b-\	.
.	.	24a-\JJ	.
8D-\L 8d-	.	(16g/LL	.
.	.	16g/	.
8BB-\J 8B-	.	16b-/	.
.	.	16dd-/JJ)	.
=12	=12	=12	=12
16C\LL 16c	.	(16cc/LL	.
(16A-\	.	16f/	.
16G\	.	16en/	.
16B-\JJ)	.	16g/JJ)	.
8r	.	(4e/ 4g	.
8C\ 8G 8B-	.	.	.
4F\ 4A-	.	8f/)	.
.	.	8r	.
=13:|!|:	=13:|!|:	=13:|!|:	=13:|!|:
!	!	!LO:TX:b:i:t=dolce	!
16F\LL	.	8a-/	.
16e-\	.	.	.
16c\	.	(4ee-X\	.
16e-\JJ	.	.	.
*rep	*	*	*
16F\LL	.	.	.
16e-\	.	.	.
16c\	.	16ddn\LL	.
16e-\JJ	.	16ee-\JJ	.
*Xrep	*	*	*
*rep	*	*	*
16F\LL	.	16ff\LL	.
16e-\	.	16ee-\	.
16c\	.	16dd-X\	.
16e-\JJ	.	16cc\JJ)	.
*Xrep	*	*	*
=14	=14	=14	=14
16A-\LL	.	8.ee-\L	.
16e-\	.	.	.
16c\	.	.	.
16e-\JJ	.	16dd-\Jk	.
*rep	*	*	*
16A-\LL	.	4dd-\	.
16e-\	.	.	.
16c\	.	.	.
16e-\JJ	.	.	.
*Xrep	*	*	*
*rep	*	*	*
16A-\LL	.	8r	.
16e-\	.	.	.
16c\	.	16b-\LL	.
16e-\JJ	.	16cc\JJ	.
*Xrep	*	*	*
=15	=15	=15	=15
16G\LL	.	(16ee-\LL	.
16e-\	.	16dd-\	.
16B-\	.	16cc\	.
16e-\JJ	.	16dd-\JJ)	.
*rep	*	*	*
16G\LL	.	8b-\L	.
16e-\	.	.	.
16B-\	.	8b-\	.
16e-\JJ	.	.	.
*Xrep	*	*	*
*rep	*	*	*
16G\LL	.	8ee-\	.
16e-\	.	.	.
16B-\	.	8dd-\J	.
16e-\JJ	.	.	.
*Xrep	*	*	*
=16	=16	=16	=16
.	.	8qee-/	.
16A-\LL	.	(8.dd-\L	.
16e-\	.	.	.
16c\	.	.	.
16e-\JJ	.	16cc\Jk	.
*rep	*	*	*
16A-\LL	.	4cc\)	.
16e-\	.	.	.
16c\	.	.	.
16e-\JJ	.	.	.
*Xrep	*	*	*
*rep	*	*	*
16A-\LL	.	8.r	.
16e-\	.	.	.
16c\	.	.	.
16e-\JJ	.	16cc\	.
*Xrep	*	*	*
!!LO:LB:g=original	!	!
=17	=17	=17	=17
16G\LL	.	8.een\L	ff
16c\	.	.	.
16B-\	.	.	.
16c\JJ	.	16cc\Jk	.
16En\LL	.	8.gg\L	.
16c\	.	.	.
16G\	.	.	.
16c\JJ	.	16ee\Jk	.
16C\LL	.	8.ccc\L	.
16c\	.	.	.
16En\	.	.	.
16c\JJ	.	[16bb-\Jk	.
=18	=18	=18	=18
16F\LL	.	16bb-\LL]	.
16c\	.	16aa-\	.
16A-\	.	16gg\	.
16c\JJ	.	16aa-\JJ	.
*rep	*	*	*
16F\LL	.	(8ff\L	.
16c\	.	.	.
16A-\	.	16ff\L	.
16c\JJ	.	16gg\JJ	.
*Xrep	*	*	*
*rep	*	*	*
16F\LL	.	16bb-\LL)	.
16c\	.	16aa-\	.
16A-\	.	16gg\	.
16c\JJ	.	16ff\JJ	.
*Xrep	*	*	*
=19	=19	=19	=19
16G\LL	.	8.een\L	.
16c\	.	.	.
16B-\	.	.	.
16c\JJ	.	16cc\Jk	.
16En\LL	.	8.gg\L	.
16c\	.	.	.
16G\	.	.	.
16c\JJ	.	16ee\Jk	.
16C\LL	.	8.ccc\L	.
16c\	.	.	.
16En\	.	.	.
16c\JJ	.	16bb-\Jk	.
=20	=20	=20	=20
16F\LL	.	(16bb-\LL	.
16c\	.	16aa-\	.
16A-\	.	16gg\	.
16c\JJ	.	16aa-\JJ)	.
*rep	*	*	*
16F\LL	.	4ff\	.
16c\	.	.	.
16A-\	.	.	.
16c\JJ	.	.	.
*Xrep	*	*	*
*rep	*	*	*
16F\LL	.	8r	.
16c\	.	.	.
16A-\	.	8cc\	.
16c\JJ	.	.	.
*Xrep	*	*	*
=21	=21	=21	=21
8r	.	8.dd-X\L	rf
8En\ 8G 8B- 8d-	rf	.	.
.	.	16b-\Jk	.
8E\L 8G 8B- 8d-	p	8g/L	.
8E\ 8G 8B- 8d-	.	(8g/	.
8E\ 8G 8B- 8d-	.	8b-/	.
8E\J 8G 8B- 8d-	.	8g/J)	.
=22	=22	=22	=22
8r	.	8.cc\L	rf
8F\ 8A- 8c	rf	.	.
.	.	16a-\Jk	.
8F\L 8A- 8c	p	8f/L	.
8F\ 8A- 8c	.	8f/	.
8F\ 8A- 8c	.	(8a-/	.
8F\J 8A- 8c	.	8f/J)	.
!!LO:PB:g=original	!	!	!
=23	=23	=23	=23
8r	.	8g/L	.
8BB-/ 8D-	.	8g/J	.
8BB-/L 8D-	.	8g/L	.
8BB-/ 8D-	.	(16dd-/L	<
.	.	16cc/JJ	.
8BB-/ 8D-	.	16b-/LL	.
.	.	16a-/	.
8BBn/J 8Dn	.	16g/	.
.	.	16f/JJ)	.
=24	=24	=24	=24
8C/ 8En	.	16en/LL	[
.	.	(16cc/	.
8r	.	16bn/	.
.	.	16cc/JJ	.
8Dn/ 8F	.	16b/LL	.
.	.	16cc/)	.
!	!	!LO:TX:b:i:t=Polonez da capo	!
8r	.	16b/	.
.	.	16cc/JJ	.
8En/ 8G	.	16dd-/LL	f
.	.	16cc/JJ	.
!	!	!LO:TUP:b:problem:klamra łukowa	!
8r	.	24b-X/LL	.
.	.	24a-X/	.
.	.	24g/JJ	.
!!LO:LB:g=original	!	!	!
==25	==25	==25	==25
*clefF4	*	*clefG2	*
*k[b-e-a-]	*	*k[b-e-a-]	*
*M3/4	*	*M3/4	*
!	!	!LO:TX:a:B:t=Trio	!
8.FF/L 8.F	.	8.f\L 8.ff	f
16AA-/Jk 16A-	.	16a-\Jk 16aa-	.
4C/ 4c	.	4cc\ 4ccc	.
4r	.	8.r	.
.	.	16ccc\	.
=26	=26	=26	=26
*clefG2	*	*	*
8B-/L 8en	.	4ddd\	p
8g/	.	.	.
8B-/ 8e	.	(16ddd\LL	.
.	.	16ccc\	.
8g/	.	16ddd\	.
.	.	16bb-\JJ)	.
8B-/ 8e	.	4gg\	.
8g/J	.	.	.
=27	=27	=27	=27
*clefF4	*	*	*
8.EEn/L 8.E-	.	8.eny\L 8.een	f
16GG/Jk 16G	.	16g\Jk 16gg	.
4BB-/ 4B-	.	(4.b-\ 4.bb-	.
4r	.	.	.
.	.	8bbn\)	.
=28	=28	=28	=28
*clefG2	*	*	*
*Xtremolo	*	*	*
8A-/L 8c	.	(4ccc\	p
8f/	.	.	.
8A-/ 8c	.	16ccc\LL	.
.	.	16bbn\	.
8f/	.	16ccc\	.
.	.	16aa-\JJ	.
8A-/ 8c	.	4ff\)	.
8f/J	.	.	.
=29||	=29||	=29||	=29||
*clefF4	*	*	*
*tremolo	*	*	*
!	!	!LO:TX:b:i:t=dolce	!
(8F\L 8A-	.	4.ff\	.
8c\	.	.	.
8F\ 8A-	.	.	.
8c\	.	(16gg\LL	.
.	.	16ff\JJ	.
8F\ 8A-	.	16bb-\LL	.
.	.	16aa-\	.
8c\J)	.	16gg\	.
.	.	16ff\JJ)	.
!!LO:LB:g=original	!	!	!
=30	=30	=30	=30
8G\L 8B-	.	(8een\L	.
8c\	.	16gg\L	.
.	.	16bb-\JJ)	.
8En\ 8G	.	4.bb-\	.
8c\	.	.	.
8E\ 8G	.	.	.
8c\J	.	8gg\	.
=31	=31	=31	=31
16F\LL	.	(16aa-\LL	.
16c\	.	16ff\JJ	.
16A-\	.	4ccc\	.
16c\JJ	.	.	.
*rep	*	*	*
16F\LL	.	.	.
16c\	.	.	.
16A-\	.	4aa-\	.
16c\JJ	.	.	.
*Xrep	*	*	*
*rep	*	*	*
16F\LL	.	.	.
16c\	.	.	.
16A-\	.	8ff\)	.
16c\JJ	.	.	.
*Xrep	*	*	*
=32	=32	=32	=32
!LO:TX:t=P:problem:mixed beam	!	!	!
8C/L	.	(16een\LL 16gg	.
.	.	16gg\ 16bb-	.
8c\J	.	16ff\ 16aa-	.
.	.	16ee\JJ 16gg	.
8r	.	4ee\ 4gg	.
8C/L	.	.	.
8F/	.	8ff\)	.
8FF/J	.	8r	.
=33:|!|:	=33:|!|:	=33:|!|:	=33:|!|:
!	!	!LO:TX:t=P:problem:mixed beam	!
16CC/LL	.	16cc\LL	ff
16C/	.	16c/	.
N[16BBn/	.	N[16Bn/	.
16C/JJ	.	16c/JJ	.
16D-X/LL	.	16d-X/LL	.
16C/	.	16c/	.
16BBn/N]	.	16Bn/N]	.
16C/JJ	.	16c/JJ	.
16En/LL	.	8cc\L 8gg	.
16C/	.	.	.
16F/	.	8cc\J 8aa-	.
16C/JJ	.	.	.
=34	=34	=34	=34
16E-/LL	.	8cc\L 8bb-	.
16C/	.	.	.
16En/	.	8gg\J	.
16C/JJ	.	.	.
16G/LL	.	8r	.
16C/	.	.	.
16E/	.	8cc\L 8gg	.
16C/JJ	.	.	.
16F/LL	.	8cc\ 8aa-	.
16C/	.	.	.
16G/	.	8cc\J 8bb-	.
16C/JJ	.	.	.
!!LO:LB:g=original	!	!	!
=35	=35	=35	=35
*Xtremolo	*	*	*
16F\LL	.	8cc\L 8aa-	.
16C\	.	.	.
16F\	.	8ff\J	.
16C\JJ	.	.	.
16A-\LL	.	(8.ccc\L	.
16C\	.	.	.
16A-\	.	.	.
16C\JJ	.	32ddd\LL	.
.	.	32ccc\JJJ	.
16G\LL	.	8bb-\L	.
16C\	.	.	.
16F\	.	8aa-\J)	.
16C\JJ	.	.	.
=36	=36	=36	=36
16F\LL	.	(4aa-\	.
16C\	.	.	.
16F\	.	.	.
16C\JJ	.	.	.
8En\	.	8gg\)	.
!	!	!LO:TX:b:i:t=Trio dal Segno	!
(8c\L	.	(8cc\L	.
8G\	.	8dd-X\	>
8E\J)	.	8een\J)	]]
==	==	==	==
*-	*-	*-	*-
!!!system-decoration: {(s1,s2)}
!!!RDF**kern: N = linked
!!!RDF**kern: > = above
!!!RDF**kern: < = below
!!!ENC: Marta Opryszak
!!!END: 2022-07-27
!!!ENC: Jan Barakat
!!!END: 2022-08-23
!!!YEC: Copyright 2022 Narodowy Instytut Fryderyka Chopina (https://polishscores.org)
!!!YEM: License CC-BY-4.0 (https://creativecommons.org/licenses/by/4.0)
